X: 35786
T: Sally McMahon
R: jig
M: 6/8
K: Gmajor
DED DEG|ABA ABd|edg edB|AGA BGE|
DED DEG|ABA ABd|edg edB|1 AGF G2E:|2 AGF G2g||
|:egg gfg|eaa aga|bag agf|egg dgg|
egg gfg|eaa aga|bag agf|egf g3:|

